assets/icons/vk.svg

<svg width="38" height="38" viewBox="0 0 38 38" fill="none" xmlns="http://www.w3.org/2000/svg">
<circle cx="19" cy="19" r="19" fill="#8A8A8A"/>
<g clip-path="url(#clip0_398_276)">
<path d="M26.9046 24.14C26.8828 24.093 26.8625 24.0541 26.8436 24.0228C26.5313 23.4604 25.9345 22.77 25.0536 21.9515L25.0349 21.9328L25.0256 21.9236L25.0162 21.9142H25.0068C24.6069 21.533 24.3538 21.2768 24.2477 21.1455C24.0537 20.8956 24.0103 20.6426 24.1163 20.3863C24.1912 20.1926 24.4726 19.7836 24.9598 19.1587C25.216 18.8276 25.419 18.5621 25.5689 18.3622C26.6499 16.9251 27.1185 16.0068 26.9747 15.6068L26.9189 15.5134C26.8814 15.4571 26.7845 15.4057 26.6285 15.3587C26.4721 15.3119 26.2723 15.3041 26.0285 15.3353L23.3295 15.354C23.2858 15.3385 23.2234 15.3399 23.142 15.3587L23.0201 15.3869L22.9732 15.4104L22.9359 15.4386C22.9046 15.4572 22.8703 15.49 22.8327 15.5369C22.7954 15.5836 22.7642 15.6384 22.7392 15.7009C22.4454 16.4569 22.1113 17.1598 21.7363 17.8095C21.5051 18.197 21.2928 18.5327 21.0989 18.817C20.9053 19.1012 20.7428 19.3106 20.6117 19.4448C20.4804 19.5792 20.3619 19.6868 20.2555 19.7681C20.1493 19.8495 20.0682 19.8838 20.012 19.8713C19.9557 19.8587 19.9027 19.8462 19.8525 19.8338C19.7651 19.7775 19.6948 19.701 19.6418 19.6041C19.5885 19.5073 19.5527 19.3854 19.5339 19.2386C19.5153 19.0917 19.5042 18.9653 19.5011 18.859C19.4982 18.7529 19.4995 18.6028 19.5059 18.4091C19.5124 18.2154 19.5153 18.0843 19.5153 18.0155C19.5153 17.7781 19.5199 17.5204 19.5292 17.2423C19.5387 16.9643 19.5463 16.744 19.5527 16.5817C19.5591 16.4193 19.562 16.2474 19.562 16.0662C19.562 15.885 19.551 15.7429 19.5292 15.6398C19.5074 15.5365 19.4745 15.436 19.431 15.3398C19.3872 15.243 19.3231 15.1681 19.2389 15.1149C19.1546 15.0618 19.0498 15.0197 18.925 14.9883C18.5938 14.9134 18.1721 14.8729 17.6597 14.8666C16.4976 14.8541 15.7509 14.9291 15.4198 15.0916C15.2886 15.1602 15.1699 15.254 15.0637 15.3726C14.9512 15.5101 14.9355 15.5852 15.0167 15.5975C15.3917 15.6537 15.6571 15.788 15.8133 16.0005L15.8696 16.113C15.9134 16.1942 15.9571 16.338 16.0009 16.5441C16.0446 16.7503 16.0728 16.9783 16.0852 17.2281C16.1164 17.6843 16.1164 18.0748 16.0852 18.3996C16.0539 18.7246 16.0243 18.9776 15.9961 19.1588C15.968 19.34 15.9258 19.4868 15.8696 19.5992C15.8133 19.7117 15.7759 19.7804 15.7571 19.8054C15.7383 19.8303 15.7227 19.846 15.7103 19.8522C15.6296 19.8833 15.5438 19.8992 15.4572 19.8992C15.3697 19.8992 15.2635 19.8554 15.1386 19.7679C15.0137 19.6804 14.8841 19.5602 14.7497 19.4071C14.6154 19.2539 14.4638 19.0399 14.2951 18.7651C14.1265 18.4902 13.9515 18.1653 13.7703 17.7904L13.6204 17.5186C13.5267 17.3437 13.3987 17.089 13.2362 16.7548C13.0736 16.4205 12.93 16.0971 12.8051 15.7847C12.7551 15.6535 12.6801 15.5536 12.5802 15.4849L12.5333 15.4567C12.5021 15.4318 12.452 15.4053 12.3834 15.377C12.314 15.3487 12.2417 15.3283 12.1678 15.3162L9.59991 15.3348C9.33751 15.3348 9.15947 15.3943 9.06572 15.513L9.0282 15.5692C9.00945 15.6004 9 15.6504 9 15.7192C9 15.7879 9.01874 15.8723 9.05626 15.9722C9.43113 16.8532 9.83878 17.7029 10.2792 18.5213C10.7197 19.3398 11.1024 19.9991 11.4272 20.4986C11.7521 20.9985 12.0832 21.4703 12.4207 21.9138C12.7581 22.3574 12.9814 22.6417 13.0907 22.7666C13.2001 22.8918 13.286 22.9853 13.3485 23.0478L13.5828 23.2727C13.7328 23.4226 13.953 23.6023 14.2435 23.8115C14.5341 24.0209 14.8558 24.2271 15.2088 24.4303C15.5619 24.6332 15.9726 24.7987 16.4413 24.9268C16.9099 25.055 17.3659 25.1064 17.8096 25.0816H18.8874C19.1059 25.0627 19.2716 24.994 19.3841 24.8754L19.4214 24.8284C19.4465 24.7911 19.4699 24.7332 19.4916 24.6552C19.5135 24.5771 19.5244 24.4911 19.5244 24.3975C19.518 24.1289 19.5385 23.8868 19.5852 23.6713C19.6319 23.4558 19.6852 23.2933 19.7447 23.1839C19.8042 23.0746 19.8714 22.9824 19.9461 22.9076C20.0211 22.8327 20.0744 22.7873 20.1057 22.7716C20.1369 22.7559 20.1617 22.7453 20.1805 22.7389C20.3304 22.6889 20.5069 22.7373 20.7101 22.8842C20.9132 23.0311 21.1037 23.2124 21.2819 23.4278C21.4599 23.6435 21.6739 23.8854 21.9238 24.1541C22.1738 24.4228 22.3924 24.6225 22.5798 24.7539L22.7671 24.8664C22.8923 24.9414 23.0547 25.0101 23.2547 25.0726C23.4543 25.135 23.6292 25.1507 23.7794 25.1194L26.1785 25.082C26.4158 25.082 26.6004 25.0427 26.7314 24.9648C26.8626 24.8867 26.9406 24.8006 26.9657 24.7071C26.9908 24.6134 26.9922 24.5071 26.9705 24.3883C26.9483 24.2697 26.9264 24.1868 26.9046 24.14Z" fill="#0D0D0D"/>
</g>
<defs>
<clipPath id="clip0_398_276">
<rect width="18" height="18" fill="white" transform="translate(9 11)"/>
</clipPath>
</defs>
</svg>

<svg xmlns="http://www.w3.org/2000/svg" width="38" height="38" fill="none"><circle cx="19" cy="19" r="19" fill="#8A8A8A"/><g clip-path="url(#a)"><path fill="#0D0D0D" d="M26.905 24.14a1.236 1.236 0 0 0-.061-.117c-.313-.563-.91-1.253-1.79-2.072l-.02-.018-.008-.01-.01-.009h-.01c-.4-.381-.652-.637-.758-.769-.194-.25-.238-.502-.132-.759.075-.193.357-.602.844-1.227.256-.331.459-.597.609-.797 1.08-1.437 1.55-2.355 1.406-2.755l-.056-.094c-.038-.056-.134-.107-.29-.154-.157-.047-.357-.055-.6-.024l-2.7.019a.35.35 0 0 0-.187.005l-.122.028-.047.023-.037.029a.416.416 0 0 0-.103.098.645.645 0 0 0-.094.164 15.29 15.29 0 0 1-1.003 2.108c-.23.388-.443.724-.637 1.008a4.843 4.843 0 0 1-.487.628c-.132.134-.25.242-.356.323-.107.081-.188.116-.244.103a7.443 7.443 0 0 1-.16-.037.623.623 0 0 1-.21-.23 1.028 1.028 0 0 1-.108-.365 4.025 4.025 0 0 1-.033-.38 7.896 7.896 0 0 1 .005-.45c.006-.194.01-.325.01-.393 0-.238.004-.496.013-.774.01-.278.017-.498.024-.66.006-.163.009-.335.009-.516s-.011-.323-.033-.426a1.459 1.459 0 0 0-.098-.3.505.505 0 0 0-.192-.225 1.085 1.085 0 0 0-.314-.127c-.331-.075-.753-.115-1.265-.121-1.162-.013-1.91.062-2.24.225-.131.068-.25.162-.356.28-.113.138-.129.213-.047.226.375.056.64.19.796.402l.057.113c.043.081.087.225.13.431.045.206.073.434.085.684.031.456.031.847 0 1.172-.031.325-.06.578-.089.759a1.516 1.516 0 0 1-.239.646.163.163 0 0 1-.047.047.704.704 0 0 1-.253.047c-.087 0-.194-.044-.318-.131a2.25 2.25 0 0 1-.39-.36 4.833 4.833 0 0 1-.454-.643 11.21 11.21 0 0 1-.525-.975l-.15-.271a23.52 23.52 0 0 1-.384-.764 14.693 14.693 0 0 1-.43-.97.618.618 0 0 0-.226-.3l-.047-.028a.647.647 0 0 0-.15-.08.998.998 0 0 0-.215-.06l-2.568.018c-.262 0-.44.06-.534.178l-.038.056a.303.303 0 0 0-.028.15c0 .069.019.153.056.253.375.881.783 1.73 1.223 2.55.44.818.823 1.477 1.148 1.977.325.5.656.971.994 1.415.337.443.56.728.67.853.11.125.195.218.258.28l.234.226c.15.15.37.33.66.538.291.21.613.416.966.62.353.202.764.368 1.232.496.469.128.925.18 1.369.155h1.077c.219-.02.385-.088.497-.207l.037-.047a.621.621 0 0 0 .07-.173.953.953 0 0 0 .033-.258 3.09 3.09 0 0 1 .061-.726c.047-.215.1-.378.16-.487a1.2 1.2 0 0 1 .36-.412.614.614 0 0 1 .075-.033c.15-.05.327-.002.53.145s.394.328.572.544c.178.215.392.457.642.726.25.269.468.468.656.6l.187.112c.125.075.288.144.488.207.2.062.374.078.524.046l2.4-.037c.237 0 .421-.04.552-.117.132-.078.21-.164.235-.258a.725.725 0 0 0 .005-.319 1.173 1.173 0 0 0-.066-.248Z"/></g><defs><clipPath id="a"><path fill="#fff" d="M9 11h18v18H9z"/></clipPath></defs></svg>
